data/styles/clear/style-night/symbols/historic-ship-m.svg

<svg height="24" viewBox="0 0 24 24" width="24"><g fill="none" fill-rule="evenodd"><circle cx="12" cy="12" fill="#fff" opacity=".4" r="12"/><circle cx="12" cy="12" fill="#3d3d36" r="11"/><path d="m18.0666667 11.0957501-.5450667.0407283c-.2221333-1.34312964-.9510667-2.52515614-1.9945333-3.3478683l.3136-.43081517c.2585333-.4335304.1054666-.98562547-.3406667-1.23633094-.4470667-.24889531-1.0173333-.10136827-1.2758667.33125705l-.2361333.47697394c-.6188-.2289837-1.2870667-.35931434-1.988-.35931434-.7046667 0-1.3766667.13214079-1.9982667.36293463l-.22866663-.47968916c-.25666667-.43443546-.82693334-.58196251-1.27493334-.33216212-.4452.25070547-.5992.80370562-.34066666 1.23723601l.30706666.43443547c-1.03973333.82361723-1.764 2.00202344-1.98613333 3.34243783l-.54506667-.0398232c-.51613333 0-.93333333.404568-.93333333.9050739 0 .5005058.4172.9050739.93333333.9050739l.5432-.048874c.2212 1.3431296.9464 2.5251561 1.988 3.3505835l-.30706666.4344355c-.25666667.4335304-.1036.9865305.34253333 1.2354258.44706667.2507055 1.01733333.1022734 1.274-.3303519l.2277333-.4796892c.6216.2307938 1.2936.3629346 1.9982667.3629346.7009333 0 1.3692-.1312357 1.988-.3593143l.2361333.4760689c.2576.4335303.8297334.5819625 1.274.3303519.448-.2488953.6010667-.8028005.3425334-1.2354258l-.3136-.4299101c1.0462666-.8254274 1.7742666-2.0092641 1.9964-3.356014l.5432.0497791c.5161333 0 .9333333-.4045681.9333333-.9050739 0-.5005059-.4172-.9050739-.9333333-.9050739zm-1.4830667.110419-2.3510667.1737742c-.112-.3810361-.3164-.7231541-.6001333-.9937711l1.344-1.84363556c.8250667.66794453 1.4112 1.59383516 1.6072 2.66363246zm-4.5836-3.73071457c.5572 0 1.0826667.11041902 1.5773333.28328813l-1.0145333 2.05361265c-.1810667-.04434862-.3686667-.07421606-.5637333-.07421606-.2165334 0-.4218667.0380131-.6216.09141246l-.9809334-2.06266339c.5021334-.17920463 1.0378667-.29143379 1.6034667-.29143379zm-2.99693333 1.08246837 1.32160003 1.8716928c-.2613334.2633765-.45080003.5892031-.55813337.9503276l-2.35106666-.1737742c.19506666-1.0607466.77373333-1.98030167 1.5876-2.6482462zm-1.58946667 4.2158342 2.3352-.208167c.10173333.3837513.3005333.7294895.5758667 1.0055371l-1.32160003 1.8716928c-.81946667-.6706598-1.39906667-1.6001707-1.58946667-2.6690629zm4.5864 3.7524363c-.5646667 0-1.1004-.1122292-1.6016-.2905287l.9809333-2.0626634c.1988.0533994.4041334.0914125.6206667.0914125.1950667 0 .3817333-.0298675.5637333-.0742161l1.0154667 2.0536127c-.4965333.171964-1.022.282383-1.5792.282383zm2.9773333-1.0679872-1.344-1.8445406c.2968-.282383.5105334-.6444126.6178667-1.0480755l2.3352.208167c-.1922667 1.077943-.7793333 2.0119792-1.6090667 2.6844491z" fill="#fff" opacity=".6"/></g></svg>

<svg width="24" height="24" viewBox="0 0 24 24">
  <g fill="none" fill-rule="evenodd">
    <circle cx="12" cy="12" r="12" fill="#FFF" opacity=".4"/>
    <circle cx="12" cy="12" r="11" fill="#3D3C36"/>
    <path fill="#FFF" d="M18.0666667,11.0957501 L17.5216,11.1364784 C17.2994667,9.79334876 16.5705333,8.61132226 15.5270667,7.7886101 L15.8406667,7.35779493 C16.0992,6.92426453 15.9461333,6.37216946 15.5,6.12146399 C15.0529333,5.87256868 14.4826667,6.02009572 14.2241333,6.45272104 L13.988,6.92969498 C13.3692,6.70071128 12.7009333,6.57038064 12,6.57038064 C11.2953333,6.57038064 10.6233333,6.70252143 10.0017333,6.93331527 L9.77306667,6.45362611 C9.5164,6.01919065 8.94613333,5.8716636 8.49813333,6.12146399 C8.05293333,6.37216946 7.89893333,6.92516961 8.15746667,7.3587 L8.46453333,7.79313547 C7.4248,8.6167527 6.70053333,9.79515891 6.4784,11.1355733 L5.93333333,11.0957501 C5.4172,11.0957501 5,11.5003181 5,12.000824 C5,12.5013298 5.4172,12.9058979 5.93333333,12.9058979 L6.47653333,12.8570239 C6.69773333,14.2001535 7.42293333,15.38218 8.46453333,16.2076074 L8.15746667,16.6420429 C7.9008,17.0755733 8.05386667,17.6285734 8.5,17.8774687 C8.94706667,18.1281742 9.51733333,17.9797421 9.774,17.5471168 L10.0017333,17.0674276 C10.6233333,17.2982214 11.2953333,17.4303622 12,17.4303622 C12.7009333,17.4303622 13.3692,17.2991265 13.988,17.0710479 L14.2241333,17.5471168 C14.4817333,17.9806471 15.0538667,18.1290793 15.4981333,17.8774687 C15.9461333,17.6285734 16.0992,17.0746682 15.8406667,16.6420429 L15.5270667,16.2121328 C16.5733333,15.3867054 17.3013333,14.2028687 17.5234667,12.8561188 L18.0666667,12.9058979 C18.5828,12.9058979 19,12.5013298 19,12.000824 C19,11.5003181 18.5828,11.0957501 18.0666667,11.0957501 L18.0666667,11.0957501 Z M16.5836,11.2061691 L14.2325333,11.3799433 C14.1205333,10.9989072 13.9161333,10.6567892 13.6324,10.3861722 L14.9764,8.54253664 C15.8014667,9.21048117 16.3876,10.1363718 16.5836,11.2061691 L16.5836,11.2061691 Z M12,7.47545453 C12.5572,7.47545453 13.0826667,7.58587355 13.5773333,7.75874266 L12.5628,9.81235531 C12.3817333,9.76800669 12.1941333,9.73813925 11.9990667,9.73813925 C11.7825333,9.73813925 11.5772,9.77615235 11.3774667,9.82955171 L10.3965333,7.76688832 C10.8986667,7.58768369 11.4344,7.47545453 12,7.47545453 L12,7.47545453 Z M9.00306667,8.5579229 L10.3246667,10.4296157 C10.0633333,10.6929922 9.87386667,11.0188188 9.76653333,11.3799433 L7.41546667,11.2061691 C7.61053333,10.1454225 8.1892,9.22586743 9.00306667,8.5579229 L9.00306667,8.5579229 Z M7.4136,12.7737571 L9.7488,12.5655901 C9.85053333,12.9493414 10.0493333,13.2950796 10.3246667,13.5711272 L9.00306667,15.44282 C8.1836,14.7721602 7.604,13.8426493 7.4136,12.7737571 L7.4136,12.7737571 Z M12,16.5261934 C11.4353333,16.5261934 10.8996,16.4139642 10.3984,16.2356647 L11.3793333,14.1730013 C11.5781333,14.2264007 11.7834667,14.2644138 12,14.2644138 C12.1950667,14.2644138 12.3817333,14.2345463 12.5637333,14.1901977 L13.5792,16.2438104 C13.0826667,16.4157744 12.5572,16.5261934 12,16.5261934 L12,16.5261934 Z M14.9773333,15.4582062 L13.6333333,13.6136656 C13.9301333,13.3312826 14.1438667,12.969253 14.2512,12.5655901 L16.5864,12.7737571 C16.3941333,13.8517001 15.8070667,14.7857363 14.9773333,15.4582062 L14.9773333,15.4582062 Z" opacity=".6"/>
  </g>
</svg>
